icon-themes/breeze_svg/cmd/lc_interactivegradient.svg

<svg height="24" viewBox="0 0 24 24" width="24" xmlns="http://www.w3.org/2000/svg" xmlns:xlink="http://www.w3.org/1999/xlink"><linearGradient id="a" gradientUnits="userSpaceOnUse" x1="6" x2="18" y1="17.99999" y2="5.99999"><stop offset="0" stop-color="#1d99f3"/><stop offset="1" stop-color="#cae7fc"/></linearGradient><path d="m17 5v1h-11v11h-1v2h2v-1h11v-11h1v-2z" fill="url(#a)" transform=""/><path d="m16 4v3.2929688l-2 2-3.181641 3.1816402-3.5253902 3.525391h-3.2929688v4h4v-3.292969l3.525391-3.52539 3.18164-3.181641 2-2h3.292969v-4zm1 1h2v2h-2zm-12 12h2v2h-2z" fill="#4d4d4d" transform=""/></svg>

<?xml version="1.0" encoding="UTF-8" standalone="no"?>
<!-- Created with Inkscape (http://www.inkscape.org/) -->

<svg
   xmlns:dc="http://purl.org/dc/elements/1.1/"
   xmlns:cc="http://creativecommons.org/ns#"
   xmlns:rdf="http://www.w3.org/1999/02/22-rdf-syntax-ns#"
   xmlns:svg="http://www.w3.org/2000/svg"
   xmlns="http://www.w3.org/2000/svg"
   xmlns:xlink="http://www.w3.org/1999/xlink"
   xmlns:sodipodi="http://sodipodi.sourceforge.net/DTD/sodipodi-0.dtd"
   xmlns:inkscape="http://www.inkscape.org/namespaces/inkscape"
   width="24"
   height="24"
   id="svg2"
   version="1.1"
   inkscape:version="0.91+devel r"
   viewBox="0 0 24 24"
   sodipodi:docname="lc_interactivegradient.svg">
  <defs
     id="defs4">
    <linearGradient
       inkscape:collect="always"
       xlink:href="#linearGradient4172-7"
       id="linearGradient4164"
       x1="3"
       y1="1049.3622"
       x2="19"
       y2="1033.3622"
       gradientUnits="userSpaceOnUse"
       gradientTransform="matrix(0.75,0,0,0.75,3.7499999,-769.02166)" />
    <linearGradient
       inkscape:collect="always"
       id="linearGradient4172-7">
      <stop
         style="stop-color:#1d99f3;stop-opacity:1"
         offset="0"
         id="stop4174-2" />
      <stop
         style="stop-color:#cae7fc;stop-opacity:1"
         offset="1"
         id="stop4176-0" />
    </linearGradient>
  </defs>
  <sodipodi:namedview
     id="base"
     pagecolor="#ffffff"
     bordercolor="#666666"
     borderopacity="1.0"
     inkscape:pageopacity="0.0"
     inkscape:pageshadow="2"
     inkscape:zoom="33.683996"
     inkscape:cx="16.916751"
     inkscape:cy="12.303406"
     inkscape:document-units="px"
     inkscape:current-layer="layer1"
     showgrid="true"
     inkscape:showpageshadow="false"
     borderlayer="true"
     inkscape:window-width="1366"
     inkscape:window-height="670"
     inkscape:window-x="-4"
     inkscape:window-y="29"
     inkscape:window-maximized="1"
     units="px"
     fit-margin-top="0"
     fit-margin-left="0"
     fit-margin-right="0"
     fit-margin-bottom="0">
    <sodipodi:guide
       position="3,21"
       orientation="18,0"
       id="guide4085" />
    <sodipodi:guide
       position="3,3"
       orientation="0,18"
       id="guide4087" />
    <sodipodi:guide
       position="21,3"
       orientation="-18,0"
       id="guide4089" />
    <sodipodi:guide
       position="21,21"
       orientation="0,-18"
       id="guide4091" />
    <sodipodi:guide
       position="4,20"
       orientation="16,0"
       id="guide4093" />
    <sodipodi:guide
       position="4,4"
       orientation="0,16"
       id="guide4095" />
    <sodipodi:guide
       position="20,4"
       orientation="-16,0"
       id="guide4097" />
    <sodipodi:guide
       position="20,20"
       orientation="0,-16"
       id="guide4099" />
    <inkscape:grid
       type="xygrid"
       id="grid4101"
       originx="1px"
       originy="0.99998262px" />
    <sodipodi:guide
       position="4,20"
       orientation="16,0"
       id="guide4123" />
    <sodipodi:guide
       position="4,4"
       orientation="0,2.000001"
       id="guide4125" />
    <sodipodi:guide
       position="5,20"
       orientation="-16,0"
       id="guide4127" />
    <sodipodi:guide
       position="6.000001,20"
       orientation="0,-2.000001"
       id="guide4129" />
    <sodipodi:guide
       position="19,20"
       orientation="16,0"
       id="guide4131" />
    <sodipodi:guide
       position="18,4"
       orientation="0,2"
       id="guide4133" />
    <sodipodi:guide
       position="20,4"
       orientation="-16,0"
       id="guide4135" />
    <sodipodi:guide
       position="20,20"
       orientation="0,-2"
       id="guide4137" />
  </sodipodi:namedview>
  <metadata
     id="metadata7">
    <rdf:RDF>
      <cc:Work
         rdf:about="">
        <dc:format>image/svg+xml</dc:format>
        <dc:type
           rdf:resource="http://purl.org/dc/dcmitype/StillImage" />
        <dc:title></dc:title>
      </cc:Work>
    </rdf:RDF>
  </metadata>
  <g
     inkscape:label="Capa 1"
     inkscape:groupmode="layer"
     id="layer1"
     transform="translate(1,-1029.3622)">
    <path
       style="opacity:1;fill:url(#linearGradient4164);fill-opacity:1;stroke:none;stroke-width:6;stroke-linecap:round;stroke-linejoin:round;stroke-miterlimit:4;stroke-dasharray:none;stroke-opacity:1"
       d="M 17 5 L 17 6 L 6 6 L 6 17 L 5 17 L 5 19 L 7 19 L 7 18 L 18 18 L 18 7 L 19 7 L 19 5 L 17 5 z "
       id="rect4156"
       transform="translate(-1,1029.3622)" />
    <path
       style="opacity:1;fill:#4d4d4d;fill-opacity:1;stroke:none;stroke-width:8;stroke-linecap:round;stroke-linejoin:round;stroke-miterlimit:4;stroke-dasharray:none;stroke-opacity:1"
       d="M 16 4 L 16 7.2929688 L 14 9.2929688 L 10.818359 12.474609 L 7.2929688 16 L 4 16 L 4 20 L 8 20 L 8 16.707031 L 11.525391 13.181641 L 14.707031 10 L 16.707031 8 L 20 8 L 20 4 L 16 4 z M 17 5 L 19 5 L 19 7 L 17 7 L 17 5 z M 5 17 L 7 17 L 7 19 L 5 19 L 5 17 z "
       transform="translate(-1,1029.3622)"
       id="path4318" />
  </g>
</svg>
